X:6014
T:Flop-Eared Mule
R:Reel
C:Trad.
O:USA
Z:Paul Hardy's Session Tunebook 2022 (see www.paulhardy.net). Creative Commons cc by-nc-sa licenced.
M:2/2
L:1/8
Q:1/2=110
K:G
d2|"G"b2b2g2g2|dedc BAG2|"D7"A2AB cBA2|"G"GABc d2d2|
"G"b2b2g2g2|dedc BAG2|"D7"A2AB cBA2|"G"G2B2 !fine!G2:|
[K:D]|:FG|"D"A2F2 A2F2|ABAG FED2|"A"E2EF GFE2|"D"D2E2 F2FG|
"D"A2F2 A2F2|ABAG FED2|"A"E2EF GFE2|"D"D2F2!D.C.!D2:|

